dist/svgs/unicons/line/book-medical.svg

<svg xmlns="http://www.w3.org/2000/svg" viewBox="0 0 24 24"><path d="M13 9h-2V7a1 1 0 00-2 0v2H7a1 1 0 000 2h2v2a1 1 0 002 0v-2h2a1 1 0 000-2zm5 6V5a3 3 0 00-3-3H5a3 3 0 00-3 3v10a3 3 0 003 3h10a3 3 0 003-3zM4 15V5a1 1 0 011-1h10a1 1 0 011 1v10a1 1 0 01-1 1H5a1 1 0 01-1-1zm17-9a1 1 0 00-1 1v10a3 3 0 01-3 3H7a1 1 0 000 2h10a5 5 0 005-5V7a1 1 0 00-1-1z"/></svg>

<svg xmlns="http://www.w3.org/2000/svg" viewBox="0 0 24 24"><path d="M13,9H11V7A1,1,0,0,0,9,7V9H7a1,1,0,0,0,0,2H9v2a1,1,0,0,0,2,0V11h2a1,1,0,0,0,0-2Zm5,6V5a3,3,0,0,0-3-3H5A3,3,0,0,0,2,5V15a3,3,0,0,0,3,3H15A3,3,0,0,0,18,15ZM4,15V5A1,1,0,0,1,5,4H15a1,1,0,0,1,1,1V15a1,1,0,0,1-1,1H5A1,1,0,0,1,4,15ZM21,6a1,1,0,0,0-1,1V17a3,3,0,0,1-3,3H7a1,1,0,0,0,0,2H17a5,5,0,0,0,5-5V7A1,1,0,0,0,21,6Z"/></svg>
